X:6
T:Buddy's Order of Canada
R:jig
C:Kinnon Beaton
O:21st century Cape Breton
S:Silver Apple News, 2004
D:i.Andrea Beaton, Licence to Drive 'Er,ii.Kinnon Beaton Eoghan Dubh
B:One Hundred Original Fiddle Tunes
Z:Paul Stewart Cranford (P.S.C.), <http://www.cranfordpub.com>
Q:300
L:1/8
M:6/8
K:E
z|EFE gfe|cAc e2 f|ecB beg|f2 g fdB|
EFE gfe|cAc e2 f|ecB beg|fgf e2:|
|:f|bef gfe|cAc e2 f|ecB beg|f2 g fdB|
[1bef gfe|cAc e2 f|ecB beg|fgf e2:|
[2EFE gfe|cAc e2 f|ecB beg|fgf e2|]
